;FLAVOR:Marlin
M73 P0
;TIME:1934
;Filament used: 0.966423m
;Layer height: 0.2
;MINX:96.961
;MINY:108.476
;MINZ:0.2
;MAXX:138.039
;MAXY:126.524
;MAXZ:5
;POSTPROCESSED
;Generated with Cura_SteamEngine 4.9.1
M140 S75
M105
M190 S75
M104 S240
M105
M109 S240
M82 ;absolute extrusion mode
; Ender 3 Custom Start G-code
G92 E0 ; Reset Extruder
G28 ; Home all axes
G1 Z2.0 F3000 ; Move Z Axis up little to prevent scratching of Heat Bed
G1 X0.1 Y20 Z0.3 F5000.0 ; Move to start position
G1 X0.1 Y200.0 Z0.3 F1500.0 E15 ; Draw the first line
G1 X0.4 Y200.0 Z0.3 F5000.0 ; Move to side a little
G1 X0.4 Y20 Z0.3 F1500.0 E30 ; Draw the second line
G92 E0 ; Reset Extruder
G1 Z2.0 F3000 ; Move Z Axis up little to prevent scratching of Heat Bed
G1 X5 Y20 Z0.3 F5000.0 ; Move over to prevent blob squish
G92 E0
G92 E0
G1 F3000 E-5
;LAYER_COUNT:25
;LAYER:0
M107
;MESH:EthernetCableBondage.stl
G0 F3600 X127.137 Y120.485 Z0.2
;TYPE:WALL-INNER
G1 F3000 E0
G1 F1200 X127.863 Y120.485 E0.02415
G1 X128.566 Y120.312 E0.04823
G1 X129.208 Y119.976 E0.07233
G1 X129.291 Y119.903 E0.076
G1 X129.488 Y119.728 E0.08477
G1 X129.752 Y119.494 E0.0965
G1 X129.882 Y119.305 E0.10413
G1 X130.163 Y118.897 E0.12061
G1 X130.42 Y118.219 E0.14472
G1 X130.507 Y117.5 E0.16881
G1 X130.42 Y116.781 E0.1929
G1 X130.163 Y116.103 E0.21702
G1 X129.882 Y115.695 E0.23349
G1 X129.752 Y115.506 E0.24112
G1 X129.489 Y115.273 E0.25281
G1 X129.292 Y115.098 E0.26157
G1 X129.208 Y115.024 E0.2653
G1 X128.566 Y114.688 E0.2894
G1 X127.863 Y114.515 E0.31348
G1 X127.137 Y114.515 E0.33762
G1 X126.434 Y114.688 E0.3617
G1 X125.792 Y115.024 E0.3858
G1 X125.709 Y115.097 E0.38948
G1 X125.512 Y115.272 E0.39825
G1 X125.248 Y115.506 E0.40998
G1 X125.118 Y115.695 E0.41761
G1 X124.837 Y116.103 E0.43409
G1 X124.58 Y116.781 E0.4582
G1 X124.493 Y117.5 E0.48229
G1 X124.58 Y118.219 E0.50638
G1 X124.837 Y118.897 E0.53049
G1 X125.118 Y119.305 E0.54697
G1 X125.248 Y119.494 E0.5546
G1 X125.511 Y119.727 E0.56629
G1 X125.708 Y119.902 E0.57505
G1 X125.792 Y119.976 E0.57878
G1 X126.434 Y120.312 E0.60288
G1 X127.137 Y120.485 E0.62696
G0 F3600 X127.186 Y120.085
G1 F1200 X127.814 Y120.085 E0.64784
G1 X128.423 Y119.935 E0.6687
G1 X128.979 Y119.644 E0.68958
G1 X129.45 Y119.227 E0.7105
G1 X129.806 Y118.71 E0.73138
G1 X130.029 Y118.123 E0.75226
G1 X130.104 Y117.5 E0.77313
G1 X130.029 Y116.877 E0.794
G1 X129.806 Y116.29 E0.81489
G1 X129.45 Y115.773 E0.83577
G1 X128.979 Y115.356 E0.85669
G1 X128.423 Y115.065 E0.87756
G1 X127.814 Y114.915 E0.89842
G1 X127.186 Y114.915 E0.91931
G1 X126.577 Y115.065 E0.94017
G1 X126.021 Y115.356 E0.96104
G1 X125.55 Y115.773 E0.98197
G1 X125.194 Y116.29 E1.00284
G1 X124.971 Y116.877 E1.02373
G1 X124.896 Y117.5 E1.0446
G1 X124.971 Y118.123 E1.06547
G1 X125.194 Y118.71 E1.08636
G1 X125.55 Y119.227 E1.10723
G1 X126.021 Y119.644 E1.12816
G1 X126.577 Y119.935 E1.14903
G1 X127.186 Y120.085 E1.16989
G0 F3600 X127.235 Y119.685
;TYPE:WALL-OUTER
G1 F1200 X127.765 Y119.685 E1.18752
G1 X128.28 Y119.558 E1.20516
G1 X128.75 Y119.312 E1.2228
G1 X129.148 Y118.96 E1.24048
G1 X129.449 Y118.523 E1.25812
G1 X129.638 Y118.027 E1.27578
G1 X129.701 Y117.5 E1.29343
G1 X129.638 Y116.973 E1.31108
G1 X129.449 Y116.477 E1.32874
G1 X129.148 Y116.04 E1.34639
G1 X128.75 Y115.688 E1.36406
G1 X128.28 Y115.442 E1.3817
G1 X127.765 Y115.315 E1.39935
G1 X127.235 Y115.315 E1.41697
G1 X126.72 Y115.442 E1.43462
G1 X126.25 Y115.688 E1.45226
G1 X125.852 Y116.04 E1.46993
G1 X125.551 Y116.477 E1.48758
G1 X125.362 Y116.973 E1.50523
G1 X125.299 Y117.5 E1.52289
G1 X125.362 Y118.027 E1.54054
G1 X125.551 Y118.523 E1.55819
G1 X125.852 Y118.96 E1.57584
G1 X126.25 Y119.312 E1.59352
G1 X126.72 Y119.558 E1.61116
G1 X127.235 Y119.685 E1.6288
G0 F3600 X127.182 Y120.121
G0 X122.88 Y119.331
G0 X122.265 Y119.331
G0 X117.137 Y120.485
;TYPE:WALL-INNER
G1 F1200 X117.863 Y120.485 E1.65295
G1 X118.566 Y120.312 E1.67703
G1 X119.208 Y119.976 E1.70113
G1 X119.291 Y119.903 E1.7048
G1 X119.488 Y119.728 E1.71357
G1 X119.752 Y119.494 E1.7253
G1 X119.882 Y119.305 E1.73293
G1 X120.163 Y118.897 E1.74941
G1 X120.42 Y118.219 E1.77353
G1 X120.507 Y117.5 E1.79761
G1 X120.42 Y116.781 E1.8217
G1 X120.163 Y116.103 E1.84582
G1 X119.882 Y115.695 E1.8623
G1 X119.752 Y115.506 E1.86992
G1 X119.489 Y115.273 E1.88161
G1 X119.292 Y115.098 E1.89038
G1 X119.208 Y115.024 E1.8941
G1 X118.566 Y114.688 E1.9182
G1 X117.863 Y114.515 E1.94228
G1 X117.137 Y114.515 E1.96643
G1 X116.434 Y114.688 E1.99051
G1 X115.792 Y115.024 E2.01461
G1 X115.709 Y115.097 E2.01828
G1 X115.512 Y115.272 E2.02705
G1 X115.248 Y115.506 E2.03878
G1 X115.118 Y115.695 E2.04641
G1 X114.837 Y116.103 E2.06289
G1 X114.58 Y116.781 E2.087
G1 X114.493 Y117.5 E2.11109
G1 X114.58 Y118.219 E2.13518
G1 X114.837 Y118.897 E2.1593
G1 X115.118 Y119.305 E2.17577
G1 X115.248 Y119.494 E2.1834
G1 X115.511 Y119.727 E2.19509
G1 X115.708 Y119.902 E2.20385
G1 X115.792 Y119.976 E2.20758
G1 X116.434 Y120.312 E2.23168
G1 X117.137 Y120.485 E2.25576
G0 F3600 X117.186 Y120.085
G1 F1200 X117.814 Y120.085 E2.27664
G1 X118.423 Y119.935 E2.2975
G1 X118.979 Y119.644 E2.31838
G1 X119.45 Y119.227 E2.3393
G1 X119.806 Y118.71 E2.36018
G1 X120.029 Y118.123 E2.38106
G1 X120.104 Y117.5 E2.40193
G1 X120.029 Y116.877 E2.4228
G1 X119.806 Y116.29 E2.44369
G1 X119.45 Y115.773 E2.46457
G1 X118.979 Y115.356 E2.48549
G1 X118.423 Y115.065 E2.50636
G1 X117.814 Y114.915 E2.52722
G1 X117.186 Y114.915 E2.54811
G1 X116.577 Y115.065 E2.56897
G1 X116.021 Y115.356 E2.58984
G1 X115.55 Y115.773 E2.61077
G1 X115.194 Y116.29 E2.63164
G1 X114.971 Y116.877 E2.65253
G1 X114.896 Y117.5 E2.6734
G1 X114.971 Y118.123 E2.69427
G1 X115.194 Y118.71 E2.71516
G1 X115.55 Y119.227 E2.73603
G1 X116.021 Y119.644 E2.75696
G1 X116.577 Y119.935 E2.77783
G1 X117.186 Y120.085 E2.79869
G0 F3600 X117.235 Y119.685
;TYPE:WALL-OUTER
G1 F1200 X117.765 Y119.685 E2.81632
G1 X118.28 Y119.558 E2.83396
G1 X118.75 Y119.312 E2.8516
G1 X119.148 Y118.96 E2.86928
G1 X119.449 Y118.523 E2.88693
G1 X119.638 Y118.027 E2.90458
G1 X119.701 Y117.5 E2.92223
G1 X119.638 Y116.973 E2.93989
G1 X119.449 Y116.477 E2.95754
G1 X119.148 Y116.04 E2.97519
G1 X118.75 Y115.688 E2.99286
G1 X118.28 Y115.442 E3.0105
G1 X117.765 Y115.315 E3.02815
G1 X117.235 Y115.315 E3.04577
G1 X116.72 Y115.442 E3.06342
G1 X116.25 Y115.688 E3.08106
G1 X115.852 Y116.04 E3.09873
G1 X115.551 Y116.477 E3.11638
G1 X115.362 Y116.973 E3.13404
G1 X115.299 Y117.5 E3.15169
G1 X115.362 Y118.027 E3.16934
G1 X115.551 Y118.523 E3.187
G1 X115.852 Y118.96 E3.20464
G1 X116.25 Y119.312 E3.22232
G1 X116.72 Y119.558 E3.23996
G1 X117.235 Y119.685 E3.2576
G0 F3600 X117.182 Y120.121
G0 X112.88 Y119.331
G0 X112.265 Y119.331
G0 X107.137 Y120.485
;TYPE:WALL-INNER
G1 F1200 X107.863 Y120.485 E3.28175
G1 X108.566 Y120.312 E3.30583
G1 X109.208 Y119.976 E3.32993
G1 X109.291 Y119.903 E3.33361
G1 X109.488 Y119.728 E3.34237
G1 X109.752 Y119.494 E3.3541
G1 X109.882 Y119.305 E3.36173
G1 X110.163 Y118.897 E3.37821
G1 X110.42 Y118.219 E3.40233
G1 X110.507 Y117.5 E3.42641
G1 X110.42 Y116.781 E3.4505
G1 X110.163 Y116.103 E3.47462
G1 X109.882 Y115.695 E3.4911
G1 X109.752 Y115.506 E3.49873
G1 X109.489 Y115.273 E3.51041
G1 X109.292 Y115.098 E3.51918
G1 X109.208 Y115.024 E3.5229
G1 X108.566 Y114.688 E3.547
G1 X107.863 Y114.515 E3.57108
G1 X107.137 Y114.515 E3.59523
G1 X106.434 Y114.688 E3.61931
G1 X105.792 Y115.024 E3.64341
G1 X105.709 Y115.097 E3.64708
G1 X105.512 Y115.272 E3.65585
G1 X105.248 Y115.506 E3.66758
G1 X105.118 Y115.695 E3.67521
G1 X104.837 Y116.103 E3.69169
G1 X104.58 Y116.781 E3.7158
G1 X104.493 Y117.5 E3.73989
G1 X104.58 Y118.219 E3.76398
G1 X104.837 Y118.897 E3.7881
G1 X105.118 Y119.305 E3.80457
G1 X105.248 Y119.494 E3.8122
G1 X105.511 Y119.727 E3.82389
G1 X105.708 Y119.902 E3.83265
G1 X105.792 Y119.976 E3.83638
G1 X106.434 Y120.312 E3.86048
G1 X107.137 Y120.485 E3.88456
G0 F3600 X107.186 Y120.085
G1 F1200 X107.814 Y120.085 E3.90545
G1 X108.423 Y119.935 E3.92631
G1 X108.979 Y119.644 E3.94718
G1 X109.45 Y119.227 E3.9681
G1 X109.806 Y118.71 E3.98898
G1 X110.029 Y118.123 E4.00986
G1 X110.104 Y117.5 E4.03074
G1 X110.029 Y116.877 E4.05161
G1 X109.806 Y116.29 E4.07249
G1 X109.45 Y115.773 E4.09337
G1 X108.979 Y115.356 E4.11429
G1 X108.423 Y115.065 E4.13516
G1 X107.814 Y114.915 E4.15602
G1 X107.186 Y114.915 E4.17691
G1 X106.577 Y115.065 E4.19777
G1 X106.021 Y115.356 E4.21865
G1 X105.55 Y115.773 E4.23957
G1 X105.194 Y116.29 E4.26045
G1 X104.971 Y116.877 E4.28133
G1 X104.896 Y117.5 E4.3022
G1 X104.971 Y118.123 E4.32307
G1 X105.194 Y118.71 E4.34396
G1 X105.55 Y119.227 E4.36484
G1 X106.021 Y119.644 E4.38576
G1 X106.577 Y119.935 E4.40663
G1 X107.186 Y120.085 E4.42749
G0 F3600 X107.235 Y119.685
;TYPE:WALL-OUTER
G1 F1200 X107.765 Y119.685 E4.44512
G1 X108.28 Y119.558 E4.46276
G1 X108.75 Y119.312 E4.48041
G1 X109.148 Y118.96 E4.49808
G1 X109.449 Y118.523 E4.51573
G1 X109.638 Y118.027 E4.53338
G1 X109.701 Y117.5 E4.55103
G1 X109.638 Y116.973 E4.56869
G1 X109.449 Y116.477 E4.58634
G1 X109.148 Y116.04 E4.60399
G1 X108.75 Y115.688 E4.62166
G1 X108.28 Y115.442 E4.63931
G1 X107.765 Y115.315 E4.65695
G1 X107.235 Y115.315 E4.67458
G1 X106.72 Y115.442 E4.69222
G1 X106.25 Y115.688 E4.70986
G1 X105.852 Y116.04 E4.72753
G1 X105.551 Y116.477 E4.74518
G1 X105.362 Y116.973 E4.76284
G1 X105.299 Y117.5 E4.78049
G1 X105.362 Y118.027 E4.79814
G1 X105.551 Y118.523 E4.8158
G1 X105.852 Y118.96 E4.83345
G1 X106.25 Y119.312 E4.85112
G1 X106.72 Y119.558 E4.86876
G1 X107.235 Y119.685 E4.8864
G0 F3600 X107.182 Y120.121
G0 X105.628 Y120.1
G0 X106.023 Y124.242
G0 X105.446 Y125.153
G0 X105.652 Y125.53
G0 X106.468 Y125.11
;TYPE:WALL-INNER
G1 F1200 X106.323 Y125.319 E4.89486
G1 X106.041 Y125.634 E4.90893
G1 X105.827 Y125.719 E4.91658
G1 X105.594 Y125.697 E4.92437
G1 X105.4 Y125.571 E4.93206
G1 X105.281 Y125.367 E4.93992
G1 X105.274 Y125.128 E4.94787
G1 X105.313 Y125.016 E4.95181
G1 X105.868 Y124.165 E4.98561
G1 X106.166 Y123.321 E5.01538
G1 X106.257 Y122.431 E5.04513
G1 X106.135 Y121.545 E5.07488
G1 X105.804 Y120.711 E5.10472
G1 X105.439 Y120.196 E5.12572
G1 X105.287 Y119.981 E5.13381
G1 X105.024 Y119.752 E5.14367
G1 X104.851 Y119.601 E5.15075
G1 X104.613 Y119.393 E5.16127
G1 X103.817 Y118.982 E5.19106
G1 X102.948 Y118.77 E5.22081
G1 X102.052 Y118.77 E5.25062
G1 X101.183 Y118.982 E5.28037
G1 X100.387 Y119.393 E5.31016
G1 X99.713 Y119.981 E5.33991
G1 X99.196 Y120.711 E5.36966
G1 X98.865 Y121.545 E5.39951
G1 X98.743 Y122.431 E5.42925
G1 X98.834 Y123.321 E5.45901
G1 X99.132 Y124.165 E5.48878
G1 X99.687 Y125.016 E5.52257
G1 X99.718 Y125.104 E5.52567
G1 X99.71 Y125.388 E5.53512
G1 X99.6 Y125.571 E5.54223
G1 X99.406 Y125.697 E5.54992
G1 X99.174 Y125.719 E5.55767
G1 X98.955 Y125.632 E5.56551
G1 X98.851 Y125.534 E5.57026
G1 X98.425 Y124.934 E5.59474
G1 X98.091 Y124.258 E5.61981
G1 X97.869 Y123.539 E5.64484
G1 X97.763 Y122.791 E5.66997
G1 X97.776 Y122.037 E5.69505
G1 X97.912 Y121.282 E5.72057
G1 X98.158 Y120.581 E5.74528
G1 X98.52 Y119.911 E5.7706
G1 X98.981 Y119.314 E5.79569
G1 X99.524 Y118.801 E5.82054
G1 X101.199 Y117.664 E5.88787
G1 X101.441 Y117.5 E5.89759
G1 X101.199 Y117.336 E5.90329
G1 X99.524 Y116.199 E5.97062
G1 X98.981 Y115.686 E5.99547
G1 X98.52 Y115.089 E6.02055
G1 X98.158 Y114.419 E6.04588
G1 X97.912 Y113.718 E6.07059
G1 X97.776 Y112.963 E6.09611
G1 X97.763 Y112.209 E6.12119
G1 X97.869 Y111.461 E6.14632
G1 X98.091 Y110.742 E6.17135
G1 X98.423 Y110.07 E6.19628
G1 X98.854 Y109.462 E6.22106
G1 X99.053 Y109.313 E6.22933
G1 X99.292 Y109.278 E6.23737
G1 X99.513 Y109.356 E6.24516
G1 X99.679 Y109.536 E6.2533
G1 X99.737 Y109.758 E6.26094
G1 X99.686 Y109.987 E6.26874
G1 X99.132 Y110.834 E6.3024
G1 X98.834 Y111.679 E6.3322
G1 X98.743 Y112.569 E6.36196
G1 X98.865 Y113.455 E6.3917
G1 X99.196 Y114.289 E6.42155
G1 X99.713 Y115.019 E6.4513
G1 X100.387 Y115.607 E6.48105
G1 X101.183 Y116.018 E6.51085
G1 X102.052 Y116.23 E6.5406
G1 X102.948 Y116.23 E6.5704
G1 X103.817 Y116.018 E6.60015
G1 X104.613 Y115.607 E6.62994
G1 X104.85 Y115.4 E6.64041
G1 X105.023 Y115.249 E6.6475
G1 X105.287 Y115.019 E6.6574
G1 X105.439 Y114.804 E6.66549
G1 X105.804 Y114.289 E6.68649
G1 X106.135 Y113.455 E6.71633
G1 X106.257 Y112.569 E6.74608
G1 X106.166 Y111.679 E6.77583
G1 X105.868 Y110.834 E6.80563
G1 X105.314 Y109.987 E6.8393
G1 X105.282 Y109.895 E6.84254
G1 X105.29 Y109.612 E6.85195
G1 X105.4 Y109.429 E6.85905
G1 X105.594 Y109.303 E6.86675
G1 X105.826 Y109.281 E6.8745
G1 X106.044 Y109.369 E6.88232
G1 X106.32 Y109.677 E6.89607
G1 X106.468 Y109.89 E6.9047
G1 X107.33 Y111.307 E6.95987
G1 X107.5 Y111.586 E6.97073
G1 X107.67 Y111.307 E6.97695
G1 X108.532 Y109.89 E7.03211
G1 X108.68 Y109.677 E7.04074
G1 X108.956 Y109.369 E7.0545
G1 X109.174 Y109.281 E7.06232
G1 X109.406 Y109.303 E7.07007
G1 X109.604 Y109.432 E7.07793
G1 X109.718 Y109.633 E7.08561
G1 X109.727 Y109.87 E7.0935
G1 X109.686 Y109.987 E7.09762
G1 X109.132 Y110.834 E7.13129
G1 X108.834 Y111.679 E7.16109
G1 X108.743 Y112.569 E7.19084
G1 X108.865 Y113.455 E7.22059
G1 X109.196 Y114.289 E7.25043
G1 X109.561 Y114.804 E7.27143
G1 X109.713 Y115.019 E7.27952
G1 X109.976 Y115.248 E7.28938
G1 X110.149 Y115.399 E7.29647
G1 X110.387 Y115.607 E7.30698
G1 X111.183 Y116.018 E7.33677
G1 X112.052 Y116.23 E7.36652
G1 X112.948 Y116.23 E7.39633
G1 X113.817 Y116.018 E7.42608
G1 X114.613 Y115.607 E7.45587
G1 X114.85 Y115.4 E7.46634
G1 X115.023 Y115.249 E7.47342
G1 X115.287 Y115.019 E7.48333
G1 X115.439 Y114.804 E7.49142
G1 X115.804 Y114.289 E7.51242
G1 X116.135 Y113.455 E7.54226
G1 X116.257 Y112.569 E7.57201
G1 X116.166 Y111.679 E7.60176
G1 X115.868 Y110.834 E7.63156
G1 X115.314 Y109.987 E7.66523
G1 X115.263 Y109.759 E7.673
G1 X115.329 Y109.523 E7.68115
G1 X115.486 Y109.357 E7.68875
G1 X115.709 Y109.278 E7.69661
G1 X115.947 Y109.314 E7.70462
G1 X116.168 Y109.484 E7.71389
G1 X116.32 Y109.677 E7.72207
G1 X116.468 Y109.89 E7.73069
G1 X117.33 Y111.307 E7.78586
G1 X117.5 Y111.586 E7.79672
G1 X117.67 Y111.307 E7.80294
G1 X118.532 Y109.89 E7.8581
G1 X118.68 Y109.677 E7.86673
G1 X118.956 Y109.369 E7.88049
G1 X119.174 Y109.281 E7.88831
G1 X119.406 Y109.303 E7.89606
G1 X119.6 Y109.428 E7.90373
G1 X119.719 Y109.638 E7.91176
G1 X119.727 Y109.87 E7.91948
G1 X119.686 Y109.987 E7.92361
G1 X119.132 Y110.834 E7.95727
G1 X118.834 Y111.679 E7.98707
G1 X118.743 Y112.569 E8.01682
G1 X118.865 Y113.455 E8.04657
G1 X119.196 Y114.289 E8.07642
G1 X119.561 Y114.804 E8.09741
G1 X119.713 Y115.019 E8.1055
G1 X119.976 Y115.248 E8.11536
G1 X120.149 Y115.399 E8.12245
G1 X120.387 Y115.607 E8.13296
G1 X121.183 Y116.018 E8.16276
G1 X122.052 Y116.23 E8.19251
G1 X122.948 Y116.23 E8.22231
G1 X123.817 Y116.018 E8.25206
G1 X124.613 Y115.607 E8.28185
G1 X124.85 Y115.4 E8.29232
G1 X125.023 Y115.249 E8.29941
G1 X125.287 Y115.019 E8.30931
G1 X125.439 Y114.804 E8.3174
G1 X125.804 Y114.289 E8.3384
G1 X126.135 Y113.455 E8.36824
G1 X126.257 Y112.569 E8.39799
G1 X126.166 Y111.679 E8.42774
G1 X125.868 Y110.834 E8.45754
G1 X125.314 Y109.987 E8.49121
G1 X125.282 Y109.895 E8.49445
G1 X125.29 Y109.612 E8.50386
G1 X125.4 Y109.429 E8.51096
G1 X125.593 Y109.304 E8.51861
G1 X125.826 Y109.281 E8.5264
G1 X126.044 Y109.369 E8.53422
G1 X126.32 Y109.677 E8.54797
G1 X126.468 Y109.89 E8.5566
G1 X127.33 Y111.307 E8.61177
G1 X127.5 Y111.586 E8.62263
G1 X127.67 Y111.307 E8.62885
G1 X128.532 Y109.89 E8.68401
G1 X128.68 Y109.677 E8.69264
G1 X128.956 Y109.369 E8.7064
G1 X129.174 Y109.281 E8.71422
G1 X129.406 Y109.303 E8.72197
G1 X129.6 Y109.428 E8.72964
G1 X129.719 Y109.638 E8.73767
G1 X129.727 Y109.87 E8.74539
G1 X129.686 Y109.987 E8.74952
G1 X129.132 Y110.834 E8.78318
G1 X128.834 Y111.679 E8.81298
G1 X128.743 Y112.569 E8.84273
G1 X128.865 Y113.455 E8.87248
G1 X129.196 Y114.289 E8.90232
G1 X129.561 Y114.804 E8.92332
G1 X129.713 Y115.019 E8.93141
G1 X129.976 Y115.248 E8.94127
G1 X130.149 Y115.399 E8.94836
G1 X130.387 Y115.607 E8.95887
G1 X131.183 Y116.018 E8.98867
G1 X132.052 Y116.23 E9.01842
G1 X132.948 Y116.23 E9.04822
G1 X133.817 Y116.018 E9.07797
G1 X134.613 Y115.607 E9.10776
G1 X135.287 Y115.019 E9.13751
G1 X135.804 Y114.289 E9.16727
G1 X136.135 Y113.455 E9.19711
G1 X136.257 Y112.569 E9.22686
G1 X136.166 Y111.679 E9.25661
G1 X135.868 Y110.834 E9.28641
